X: 2
T: The Lilting Banshee
R: jig
M: 6/8
L: 1/8
K: Ador
|: EAA EAA | BAB G2A | Bee edB | dBA GED | EAA EAA | BAB G2A | Bee edB | dBA A3 :| eaa age | dBA G2A | Bee edB | def gfg | eaa age | dBA G2A | Bee edB | dBA A3 :|


Tune 60	Setting 12502

